argent.svg

<svg width="85" height="26" viewBox="0 0 85 26" fill="none" xmlns="http://www.w3.org/2000/svg">
<g clip-path="url(#clip0)">
<path d="M83.3409 8.8535H81.4968V6.62893C81.4968 6.51106 81.4444 6.40233 81.3524 6.33047C81.264 6.26069 81.1498 6.23588 81.0413 6.2631L79.4192 6.66287C79.2533 6.70389 79.1369 6.85432 79.1369 7.02887V8.8535H78.2123C78.0083 8.8535 77.8423 9.02312 77.8423 9.23159V10.5779C77.8423 10.7864 78.0083 10.9561 78.2123 10.9561H79.1369V16.3877C79.1577 18.6965 80.6333 19.0146 82.2245 19.0146C82.3819 19.0146 82.5392 19.0102 82.6987 19.0053C82.8596 19.0005 83.0234 18.9955 83.1922 18.9955L83.2109 18.9943C83.4278 18.9664 83.5622 18.8146 83.5622 18.5981V17.1555C83.5622 16.947 83.3962 16.7776 83.1922 16.7776H82.634C81.8258 16.7776 81.4968 16.419 81.4968 15.5401V10.9561H83.3409C83.5449 10.9561 83.7109 10.7864 83.7109 10.5779V9.23159C83.7109 9.02312 83.5449 8.8535 83.3409 8.8535Z" fill="white"/>
<path d="M73.4212 8.69962C72.455 8.69962 71.6986 8.99753 71.1675 9.58568V9.23158C71.1675 9.01599 71.0083 8.85349 70.7971 8.85349H69.0853C68.8739 8.85349 68.7147 9.01599 68.7147 9.23158V18.5981C68.7147 18.8137 68.8739 18.9763 69.0853 18.9763H70.7971C71.0083 18.9763 71.1675 18.8137 71.1675 18.5981V12.7319C71.1675 11.6467 71.8263 10.9175 72.807 10.9175C73.7912 10.9175 74.4277 11.6373 74.4277 12.7511V18.5981C74.4277 18.8137 74.5864 18.9763 74.7976 18.9763H76.5096C76.7208 18.9763 76.8802 18.8137 76.8802 18.5981V12.2896C76.8802 10.1088 75.5225 8.69962 73.4212 8.69962Z" fill="white"/>
<path d="M64.7893 12.9116H61.1457C61.1671 12.5899 61.2084 12.3652 61.2819 12.1682L61.2853 12.158C61.5225 11.3465 62.0913 10.9176 62.9303 10.9176C63.8338 10.9176 64.4736 11.4095 64.6883 12.2773C64.7339 12.418 64.7695 12.6447 64.7893 12.9116ZM62.9303 8.69971C60.9419 8.69971 59.4353 9.82528 58.9007 11.7073C58.7254 12.269 58.6502 12.9702 58.6709 13.8475C58.6709 14.9261 58.8146 15.7942 59.1087 16.4977C59.7599 18.1693 61.1822 19.1112 63.1146 19.1493C63.1383 19.1496 63.1618 19.1498 63.1856 19.1498C64.7941 19.1498 66.1737 18.4838 66.9803 17.3124C67.0944 17.1353 67.0648 16.9579 66.8961 16.8126L65.743 15.8325C65.6358 15.74 65.536 15.7314 65.4707 15.7389C65.4019 15.7479 65.3007 15.7862 65.2091 15.9185C64.7504 16.5907 64.1151 16.9314 63.3232 16.9314C62.243 16.914 61.5569 16.4761 61.2786 15.6154C61.1967 15.4289 61.1607 15.1581 61.129 14.8605H66.8939C67.1147 14.8605 67.2633 14.7095 67.2643 14.4845C67.2837 13.8345 67.281 13.3241 67.2075 12.7922C66.8947 10.0765 65.4557 8.69971 62.9303 8.69971Z" fill="white"/>
<path d="M54.7656 13.8285C54.7656 14.8891 54.7255 15.1628 54.6399 15.499C54.4451 16.304 53.8556 16.7658 53.0221 16.7658C52.1983 16.7658 51.558 16.2818 51.3057 15.4614C51.2259 15.2546 51.1305 14.8071 51.1305 13.8477C51.1305 13.0895 51.1976 12.5714 51.3453 12.2081C51.6177 11.3835 52.2223 10.9105 53.0036 10.9105C53.831 10.9105 54.4356 11.3908 54.6231 12.2029C54.7243 12.552 54.7656 12.7967 54.7656 13.8285ZM56.8404 8.85342H55.1352C54.9245 8.85342 54.7656 9.01556 54.7656 9.23064V9.48481C54.1995 8.95715 53.4631 8.70026 52.5216 8.70026C50.8557 8.70026 49.4953 9.7231 48.9723 11.366C48.7022 12.1395 48.6675 13.0986 48.6675 13.8477C48.6675 14.8309 48.7457 15.5796 48.9147 16.2082C49.5042 18.1785 51.2315 18.8803 52.6514 18.8803C53.5361 18.8803 54.2468 18.6304 54.7653 18.139C54.7557 18.9623 54.5402 19.5549 54.1074 19.9493C53.5406 20.4658 52.5813 20.6516 51.1608 20.5181C50.7936 20.5181 50.754 20.7684 50.754 20.8707L50.6984 22.4471C50.6984 22.6676 50.8226 22.8153 51.0343 22.8429C51.3861 22.8792 51.7283 22.8975 52.0586 22.8975C53.6475 22.8975 54.9706 22.4793 55.8499 21.686C56.7523 20.8712 57.2098 19.678 57.2098 18.1392V9.23064C57.2098 9.01556 57.0509 8.85342 56.8404 8.85342Z" fill="white"/>
<path d="M47.8356 8.89318C47.5755 8.78894 47.289 8.73822 46.9593 8.73822C46.0839 8.73822 45.3711 9.09461 44.8362 9.79835V9.23175C44.8362 9.02328 44.67 8.85352 44.4657 8.85352H42.7537C42.5494 8.85352 42.3833 9.02306 42.3833 9.23161V18.5981C42.3833 18.8067 42.5496 18.9764 42.7539 18.9764H44.4657C44.67 18.9764 44.8362 18.8067 44.8362 18.5981V13.1552C44.8362 11.9818 45.6823 11.4078 46.5331 11.3585C46.8285 11.317 46.9956 11.3305 47.1841 11.368C47.3944 11.4096 47.5931 11.2804 47.64 11.0735L48.0941 9.40252C48.1402 9.18987 48.029 8.97084 47.8356 8.89318Z" fill="white"/>
<path d="M38.2045 14.5912V15.444C38.2045 16.4594 37.1535 17.0662 36.1372 17.0662C35.4528 17.0662 34.7213 16.7663 34.7213 15.9247C34.7213 15.0773 35.4408 14.5912 36.6954 14.5912H38.2045ZM36.5839 8.69971C34.6926 8.69971 33.1829 9.56752 32.7377 10.9107C32.6998 11.0249 32.713 11.149 32.7734 11.2514C32.83 11.3472 32.9236 11.4139 33.031 11.4351L34.7183 11.859C34.8951 11.8915 35.0711 11.7965 35.139 11.6332C35.332 11.1718 35.8648 10.9176 36.6397 10.9176C37.6633 10.9176 38.2045 11.412 38.2045 12.3475V12.7579H36.2675C33.7519 12.7579 32.2499 13.9993 32.2499 16.0788C32.2499 18.3285 33.9794 19.1302 35.5978 19.1302C36.6832 19.1302 37.5803 18.8069 38.2045 18.1955V18.5982C38.2045 18.8067 38.3707 18.9763 38.575 18.9763H40.2867C40.491 18.9763 40.6573 18.8067 40.6573 18.5982V12.1167C40.6573 10.1048 38.9823 8.69971 36.5839 8.69971Z" fill="white"/>
<path d="M17.1526 1.1055H10.2865C10.0571 1.1055 9.87326 1.29626 9.86823 1.53336C9.72951 8.19828 6.35599 14.5241 0.549451 19.0047C0.365103 19.1468 0.323104 19.4141 0.45788 19.6066L4.47516 25.3481C4.61182 25.5435 4.8781 25.5876 5.06555 25.444C8.69625 22.6608 11.6165 19.3032 13.7196 15.5816C15.8226 19.3032 18.7431 22.6608 22.3738 25.444C22.561 25.5876 22.8274 25.5435 22.9642 25.3481L26.9814 19.6066C27.1161 19.4141 27.0741 19.1468 26.8899 19.0047C21.0832 14.5241 17.7097 8.19828 17.5711 1.53336C17.5661 1.29626 17.3821 1.1055 17.1526 1.1055Z" fill="white"/>
</g>
<defs>
<clipPath id="clip0">
<rect width="84" height="25" fill="white" transform="translate(0.022728 0.909088)"/>
</clipPath>
</defs>
</svg>

<svg xmlns="http://www.w3.org/2000/svg" width="85" height="26" fill="none"><g clip-path="url(#A)" fill="#000"><path d="M83.341 8.854h-1.844V6.629c0-.118-.052-.227-.144-.298a.36.36 0 0 0-.311-.067l-1.622.4c-.166.041-.282.191-.282.366v1.825h-.925c-.204 0-.37.17-.37.378v1.346c0 .209.166.378.37.378h.925v5.432c.021 2.309 1.496 2.627 3.088 2.627l.474-.009.493-.01.019-.001c.217-.028.351-.18.351-.396v-1.443c0-.209-.166-.378-.37-.378h-.558c-.808 0-1.137-.359-1.137-1.237v-4.584h1.844c.204 0 .37-.17.37-.378V9.232c0-.208-.166-.378-.37-.378zm-9.92-.154c-.966 0-1.723.298-2.254.886v-.354c0-.216-.159-.378-.37-.378h-1.712c-.211 0-.371.162-.371.378v9.367c0 .216.159.378.371.378h1.712c.211 0 .37-.163.37-.378v-5.866c0-1.085.659-1.814 1.639-1.814s1.621.72 1.621 1.834V18.6c0 .216.159.378.37.378h1.712c.211 0 .371-.163.371-.378v-6.31c0-2.181-1.358-3.59-3.459-3.59zm-8.632 4.212h-3.644c.021-.322.063-.546.136-.743l.003-.01c.237-.811.806-1.24 1.645-1.24.903 0 1.543.492 1.758 1.36.046.141.081.367.101.634zM62.93 8.7c-1.988 0-3.495 1.126-4.03 3.008-.175.562-.251 1.263-.23 2.14 0 1.079.144 1.947.438 2.65.651 1.672 2.074 2.614 4.006 2.652h.071c1.608 0 2.988-.666 3.795-1.837.114-.177.085-.355-.084-.5l-1.153-.98a.35.35 0 0 0-.272-.094c-.065.007-.17.047-.262.18-.459.672-1.094 1.013-1.886 1.013-1.08-.017-1.766-.455-2.045-1.316-.082-.186-.118-.457-.15-.755h5.765c.221 0 .369-.151.37-.376.019-.65.017-1.16-.057-1.692-.313-2.716-1.752-4.092-4.277-4.092zm-8.164 5.129c0 1.061-.04 1.334-.126 1.671-.195.805-.784 1.267-1.618 1.267-.824 0-1.464-.484-1.716-1.304-.08-.207-.175-.654-.175-1.614 0-.758.067-1.276.215-1.64.272-.825.877-1.298 1.658-1.298.827 0 1.432.48 1.62 1.292.101.349.142.594.142 1.626zm2.075-4.975h-1.705c-.211 0-.37.162-.37.377v.254c-.566-.528-1.303-.785-2.244-.785-1.666 0-3.026 1.023-3.549 2.666-.27.774-.305 1.733-.305 2.482 0 .983.078 1.732.247 2.361.589 1.97 2.317 2.672 3.737 2.672.885 0 1.595-.25 2.114-.741-.01.823-.225 1.416-.658 1.81-.567.517-1.526.702-2.947.569-.367 0-.407.25-.407.353l-.056 1.576c0 .221.124.368.336.396l1.024.055c1.589 0 2.912-.418 3.791-1.212.902-.815 1.36-2.008 1.36-3.547V9.231c0-.215-.159-.377-.369-.377zm-9.005.039c-.26-.104-.547-.155-.876-.155-.875 0-1.588.356-2.123 1.06v-.567c0-.208-.166-.378-.37-.378h-1.712c-.204 0-.37.17-.37.378v9.366c0 .209.166.378.371.378h1.712c.204 0 .37-.17.37-.378v-5.443c0-1.173.846-1.747 1.697-1.797a1.74 1.74 0 0 1 .651.01c.21.042.409-.088.456-.295l.454-1.671c.046-.213-.065-.432-.258-.509zm-9.631 5.698v.853c0 1.015-1.051 1.622-2.067 1.622-.684 0-1.416-.3-1.416-1.141 0-.847.72-1.333 1.974-1.333h1.509zM36.584 8.7c-1.891 0-3.401.868-3.846 2.211-.038.114-.025.238.036.341a.39.39 0 0 0 .258.184l1.687.424a.38.38 0 0 0 .421-.226c.193-.461.726-.716 1.501-.716 1.024 0 1.565.494 1.565 1.43v.41h-1.937c-2.516 0-4.018 1.241-4.018 3.321 0 2.25 1.73 3.051 3.348 3.051 1.085 0 1.983-.323 2.607-.935v.403c0 .209.166.378.37.378h1.712c.204 0 .371-.17.371-.378v-6.481c0-2.012-1.675-3.417-4.073-3.417zM17.153 1.106h-6.866c-.229 0-.413.191-.418.428-.139 6.664-3.513 12.99-9.32 17.471-.184.142-.226.409-.092.602l4.017 5.741c.137.195.403.239.59.096 3.631-2.783 6.551-6.141 8.654-9.862 2.103 3.722 5.023 7.079 8.654 9.862a.41.41 0 0 0 .59-.096l4.017-5.741c.135-.192.093-.46-.091-.602-5.807-4.481-9.18-10.806-9.319-17.471-.005-.237-.189-.428-.419-.428z"/></g><defs><clipPath id="A"><path fill="#000" transform="translate(.023 .909)" d="M0 0h84v25H0z"/></clipPath></defs></svg>
